X: 369
T:Liberty Two-step
N: page 132
N: heptatonic
M:C|
L:1/8
K:D major
%
"D"f2 A2 f2 A2 | fgfe d2 ef | "G"g2 B2 g2 B2 | gagf edeg |
"D"f2 A2 f2 A2 | fgfe d2 cd | "A"efed B2 c2 | [1 "D"d4 d2 eg :| [2 "D"d4 d4 |
|: "D"A3 B AGFE | DFAd f2 d2 | A3 B dBAF | "A"E4 E4 |
"D"A3 B AGFE | DFAd f2 d2 | "A"efed B2 c2 | "D"d4 d4 :|
